X:1
T:The Canterbury Jig
C:Charlie Jemmett
O:New Zealand
M:6/8
L:1/8
Q:1/4=160
K:D
V:1
f2g|:"D"a3 f2d|"G"edB G2B|"D"A2B Adf|agf "A"efg|
"D"a3 f2d|"G"edB G2B|"D"ABA a2f|1 "A"e3 "D"dfg:|2 "A"e3 "D"d2c|
"Bm"B2B B2A|B2B B2A|B2B B2c|d2d dcd|
"E7"e2e e2c|e2e e2c|efe dcB|"A"A3 f2g|
"D"a3 f2d|"G"edB G2B|"D"A2B Adf|agf "A"efg|
"D"a3 f2d|"G"edB G2B|"D"ABA a2f|"A"e3 "D"d3||